X: 2167
T: Şen Gözlerine Neş`e Veren
C: Mısırlı Udî İbrahim Efendi
O: Turkey
F: http://compmusic.upf.edu/node/140
N: kurdilihicazkar--sarki--yuruksemai--sen_gozlerine--misirli_udi_ibrahim_efendi
N: makam= kurdilihicazkar
N: form= sarki
N: usul= yuruksemai = 6/8
M: 6/8
L: 1/16
K: C _B _e _A 
Q: 1/4=156
%%MIDI tuningsystem comma53
.g2.g2 .g2f3/2_1/4e/ d2e2  | c6cd _2/4efg=a  | \
w:  ARANAĞME  |   | 
b2_2/4a2 g2f2 _2/4e2f2  | g12  | 
w:   |   | 
d3/2c/d2 g2d3/2c/ d2g2  | f2e2 d2c2 B2=A2  | B12  | \
w:   |   |   | 
d6B2 A2G2  | F4 dcc6  | 
w:   |   | 
B3/2A/B2 G2A3/2G/ A2F2  | G12  | .g2.g2 .g2f3/2_1/4e/ d2e2  | \
w:   |   |  ARANAĞME  | 
c6cd _2/4efg=a  | 
w:   | 
b2_2/4a2 g2f2 _2/4e2f2  | g12  | d3/2c/d2 g2d3/2c/ d2g2  | \
w:   |   |   | 
f2e2 d2c2 B2=A2  | 
w:   | 
B12  | d6B2 A2G2  | F4 dcc6  | B3/2A/B2 G2A3/2G/ A2F2  | G12  | \
w:   |   |   |   |   | 
g6b2 _2/4a2g2  | 
w:  Şen  göz  | 
f2_2/4e2 f2g6  | f2_3/4e2 d2e2 f2g2  | \
w:  le *  ri ne   |  neş *  *  e   | 
gf_3/4e2 edd6  | g2f2 e2d2 c2B2  | 
w:  ve *  *  *  *  ren   |  bir   | 
A2G2 F2d4z2  | d2_3/4e2 f2gf _7/8e2ed  | d12  | \
w:   |  çi *  çek_ ol  |  sam    | 
g=afg _3/4e2fg efd2  | 
w:  SAZ  | 
_3/4efd_e cedc BAG2  | g6b2 _2/4a2g2  | \
w:   |  Şen  göz  | 
f2_2/4e2 f2g6  | f2_3/4e2 d2e2 f2g2  | 
w:  le *  ri ne   |  neş *  *  e   | 
gf_3/4e2 edd6  | g2f2 e2d2 c2B2  | A2G2 F2d4z2  | \
w:  ve *  *  *  *  ren   |  bir   |   | 
d2_3/4e2 f2gf _7/8e2ed  | 
w:  çi *  çek_ ol  | 
d12  | g=afg _3/4e2fg efd2  | _3/4efdf edc3/2d/ efg2  | 
w:  sam    |  SAZ  |   | 
g6f2 _1/4edc2  | d2_2/4e2 f2e2 _3/4d2c2  | \
w:  Bû sen  |  le  *  sa rar  | 
f2_2/4e2 _3/4d2c2 {d}cdcB  | c2_3/4dc B_2/4AB6  | 
w:  sam   |  o  *  *  gü *  zel   | 
b2=a2 g2f2 e2d2  | c2B2 A2G4F2  | G2A2 B2cB A2AG  | G12  | \
w:  sî  |   |  ne *  de  sol  |  sam    | 
g=afg _3/4e2fg efd2  | 
w:  SAZ  | 
_3/4efdf _1/4edc3/2d/ _3/4efg2  | \
w:   | 
g6f2 _1/4edc2  | d2_2/4e2 f2e2 _3/4d2c2  | 
w:  Bû sen  |  le  *  sa rar  | 
f2_2/4e2 _3/4d2c2 {d}cdcB  | c2_3/4dc B_2/4AB6  | \
w:  sam   |  o  *  *  gü *  zel   | 
b2=a2 g2f2 e2d2  | c2B2 A2G4F2  | 
w:  sî  |   | 
G2A2 B2cB A2AG  | G12  | b6b4_3/4c'2  | \
w:  ne *  de  sol  |  sam    |  SAZ  | 
b_2/4ag2 a2b6  | b6b2 {_3/4c'}b2c'2  | 
w:   |  Her  kok  | 
b_2/4ag2 a2b6  | _7/8c'2b2 _2/4a2b2 a2g2  | \
w:  la *  *  yı şın   |  ru *  *  hu  | 
_1/4a2{c'}ba g^fg6  | b2_2/4a2 g2f2 _2/4e2d2  | 
w:  mu  *  *  *  *  *  â  |  teş  | 
g6gf _3/4edc2  | d2_3/4e2 f2gf e2ed  | d12  | \
w:   |  le *  re  yak  |  sa    | 
g=afg _3/4e2fg efd2  | 
w:  SAZ  | 
_3/4efdf edc3/2d/ efg2  | g6f2 _1/4edc2  | \
w:   |  Bû sen  | 
d2_2/4e2 f2e2 _3/4d2c2  | 
w:  le  *  sa rar  | 
f2_2/4e2 _3/4d2c2 {d}cdcB  | c2_3/4dc B_2/4AB6  | \
w:  sam   |  o  *  *  gü *  zel   | 
b2=a2 g2f2 e2d2  | c2B2 A2G4F2  | 
w:  sî  |   | 
G2A2 B2cB A2AG  | G12  | |


